static/assets/images/networks/b2.svg

<svg width="256" height="256" viewBox="0 0 256 256" fill="none" xmlns="http://www.w3.org/2000/svg">
<path d="M256 128C256 198.692 198.693 256 128 256C57.3077 256 0 198.692 0 128C0 57.3074 57.3077 0 128 0C198.693 0 256 57.3074 256 128Z" fill="#FFB852"/>
<path d="M82.4733 165.05C82.4894 165.901 82.5022 166.4 81.3255 166.413L66.0816 166.565L66.2522 180.391L92.8227 180.103L93.0716 200.195L106.282 200.038L106.032 179.947L114.244 179.86L114.486 199.924L127.052 199.789L126.831 179.69L136.281 179.603C142.574 179.518 165.043 173.925 164.744 153.078C164.921 147.437 163.184 141.902 159.816 137.373C156.448 132.844 151.648 129.587 146.194 128.133C146.194 128.133 158.894 120.288 157.513 107.134C156.131 93.9796 145.78 90.4063 139.824 88.5146C135.197 87.2468 130.44 86.513 125.646 86.328L125.393 65.3224L113.32 65.5358L113.599 86.4163L103.892 86.5402L103.702 65.5485L91.4905 65.7974L91.7355 86.7757L66.1394 87.0802L66.2522 99.4452L80.2861 99.2796C81.6983 99.2629 81.7066 99.9696 81.7116 100.44L82.4733 165.05ZM103.999 98.9963L118.919 98.8335C121.481 98.8113 133.953 100.796 134.011 111.376C134.108 114.275 133.163 117.115 131.347 119.377C129.53 121.64 126.963 123.177 124.111 123.71C122.968 124.006 121.799 124.185 120.62 124.241L104.169 124.421L103.999 98.9963ZM104.638 137.578L127.956 137.369C129.644 137.381 131.312 137.737 132.858 138.414C134.404 139.092 135.795 140.078 136.947 141.312C138.099 142.546 138.988 144.002 139.558 145.59C140.129 147.178 140.369 148.867 140.266 150.552C140.375 158.964 133.071 162.737 129.232 163.743C128.671 163.909 128.089 164.002 127.504 164.019L105.003 164.309L104.638 137.578Z" fill="#FFE3BD"/>
<path fill-rule="evenodd" clip-rule="evenodd" d="M77.0927 161.122L60.6827 161.286L60.985 185.782L87.5561 185.495L87.805 205.591L111.681 205.308L111.68 205.288L132.444 205.064L132.222 184.975L136.33 184.936H136.354C140.429 184.881 148.589 183.203 155.83 178.637C163.293 173.931 170.216 165.812 170.078 153.123C170.263 146.321 168.157 139.653 164.096 134.191C161.845 131.164 159.067 128.606 155.919 126.623C156.103 126.414 156.287 126.2 156.47 125.98C160.002 121.738 163.712 115.098 162.817 106.577C161.966 98.4696 158.24 93.018 153.694 89.4191C149.351 85.9818 144.426 84.3807 141.439 83.4318L141.337 83.3996L141.234 83.3713C137.85 82.4435 134.402 81.7796 130.921 81.3841L130.662 59.8958L108.988 60.2785L108.986 60.1058L86.0961 60.5735L86.34 81.5063L60.7583 81.8102L60.9677 104.842L76.4277 104.659L77.0927 161.122ZM91.7355 86.7757L66.1394 87.0802L66.2522 99.4452L80.2861 99.2796C81.6983 99.2629 81.7066 99.9696 81.7116 100.44L82.4733 165.05L82.4727 165.056C82.49 165.904 82.4994 166.399 81.3255 166.413L66.0816 166.565L66.2522 180.391L92.8227 180.103L93.0716 200.195L106.282 200.038L106.032 179.947L114.244 179.86L114.486 199.924L127.052 199.789L126.831 179.69L136.281 179.603C142.574 179.518 165.043 173.925 164.744 153.078C164.921 147.437 163.184 141.902 159.816 137.373C157.7 134.527 155.019 132.185 151.966 130.475C150.159 129.463 148.221 128.674 146.194 128.133C146.194 128.133 148.468 126.729 150.986 124.112C154.42 120.545 158.311 114.723 157.513 107.134C156.131 93.9796 145.78 90.4063 139.824 88.5146C135.197 87.2468 130.44 86.513 125.646 86.328L125.393 65.3224L113.32 65.5358L113.599 86.4163L103.892 86.5402L103.702 65.5485L91.4905 65.7974L91.7355 86.7757ZM134.011 111.376C133.953 100.796 121.481 98.8113 118.919 98.8335L103.999 98.9963L104.169 124.421L120.62 124.241C121.799 124.185 122.968 124.006 124.111 123.71C126.963 123.177 129.53 121.64 131.347 119.377C133.163 117.115 134.108 114.275 134.011 111.376ZM120.454 118.909C121.236 118.866 122.012 118.745 122.769 118.548L122.949 118.501L123.132 118.467C124.731 118.168 126.169 117.307 127.188 116.039C128.205 114.771 128.736 113.18 128.681 111.555L128.678 111.48L128.678 111.405C128.663 108.726 127.274 107.089 124.918 105.847C123.704 105.208 122.365 104.77 121.166 104.497C120.577 104.362 120.055 104.277 119.644 104.226C119.438 104.2 119.271 104.185 119.146 104.176C119.032 104.168 118.974 104.167 118.966 104.167L109.368 104.272L109.467 119.029L120.454 118.909ZM140.266 150.552C140.369 148.867 140.129 147.178 139.558 145.59C138.988 144.002 138.099 142.546 136.947 141.312C135.795 140.078 134.404 139.092 132.858 138.414C131.312 137.737 129.644 137.381 127.956 137.369L104.638 137.578L105.004 164.307L127.504 164.019C128.089 164.002 128.671 163.909 129.232 163.743C133.071 162.737 140.375 158.964 140.266 150.552ZM127.374 158.687C127.492 158.682 127.61 158.661 127.723 158.628L127.802 158.605L127.881 158.585C129.161 158.249 131.099 157.405 132.607 156.01C133.99 154.731 134.964 153.065 134.932 150.621L134.93 150.422L134.942 150.224C135.002 149.262 134.864 148.299 134.539 147.393C134.213 146.487 133.706 145.656 133.049 144.952C132.392 144.248 131.598 143.686 130.716 143.298C129.846 142.917 128.907 142.714 127.956 142.703L110.044 142.864L110.263 158.908L127.374 158.687Z" fill="black"/>
<path d="M119.981 22.8559C140.792 21.2687 161.584 25.8939 179.736 36.1145L176.618 41.3393C159.545 31.761 140.002 27.4292 120.443 28.9209C99.9972 30.4802 80.5333 38.327 64.7227 51.3852C48.9122 64.443 37.5288 82.0724 32.1335 101.856C26.7383 121.639 27.5956 142.607 34.588 161.884C41.5804 181.161 54.3655 197.802 71.1894 209.526C88.0133 221.249 108.052 227.481 128.558 227.366C149.063 227.251 169.031 220.794 185.722 208.883C201.689 197.488 213.909 181.635 220.871 163.338L226.614 165.348C219.236 184.83 206.244 201.709 189.255 213.833C171.543 226.474 150.352 233.326 128.592 233.448C106.831 233.571 85.5655 226.957 67.7116 214.516C49.8583 202.075 36.2903 184.415 28.87 163.958C21.4495 143.502 20.5397 121.25 26.2652 100.255C31.9907 79.2613 44.0711 60.5524 60.85 46.6951C77.6277 32.8377 98.2827 24.5106 119.981 22.8559Z" fill="black"/>
<path d="M228.897 131.883H187.515V120.572L201.148 106.745C205.982 101.782 209.334 97.9791 211.203 95.3363C213.137 92.6935 214.104 89.8896 214.104 86.9246C214.104 83.8952 213.298 81.768 211.687 80.5435C210.14 79.3191 207.916 78.7069 205.016 78.7069C200.697 78.7069 195.991 79.093 190.899 79.8663L188.579 80.1563L187.902 69.8113C194.219 67.878 200.761 66.9108 207.529 66.9108C221.066 66.9108 227.833 73.0024 227.833 85.1846C227.833 89.9541 226.802 94.0796 224.739 97.5602C222.677 101.041 218.938 105.263 213.524 110.226L202.405 120.282H228.897V131.883Z" fill="#FFDFB6"/>
<path fill-rule="evenodd" clip-rule="evenodd" d="M234.23 137.217H182.182V118.385L197.327 103.025L197.339 103.013C202.139 98.0829 205.238 94.5346 206.849 92.2568L206.873 92.2218L206.899 92.1868C208.237 90.3579 208.77 88.6396 208.77 86.9252C208.77 85.8541 208.624 85.2435 208.512 84.9468C208.474 84.8485 208.445 84.7935 208.428 84.7669L208.418 84.758L208.376 84.7252C208.124 84.5263 207.259 84.0402 205.015 84.0402C201.009 84.0402 196.576 84.3996 191.699 85.1402L191.631 85.1502L183.626 86.1507L182.304 65.9474L186.341 64.7119C193.176 62.6191 200.245 61.5774 207.529 61.5774C214.988 61.5774 221.579 63.2441 226.325 67.5152C231.178 71.8824 233.166 78.1174 233.166 85.1846C233.166 90.7385 231.959 95.839 229.327 100.28C226.864 104.437 222.668 109.079 217.127 114.158L217.101 114.182L216.254 114.948H234.23V137.217ZM202.405 120.282L213.524 110.226C218.938 105.263 222.677 101.041 224.739 97.5602C226.802 94.0796 227.833 89.9541 227.833 85.1846C227.833 73.0024 221.066 66.9108 207.529 66.9108C200.761 66.9108 194.219 67.878 187.902 69.8113L188.579 80.1563L190.899 79.8663C191.908 79.713 192.899 79.5757 193.877 79.453C197.838 78.9557 201.552 78.7069 205.016 78.7069C207.916 78.7069 210.14 79.3191 211.687 80.5435C213.298 81.768 214.104 83.8952 214.104 86.9246C214.104 89.8896 213.137 92.6935 211.203 95.3363C209.334 97.9791 205.982 101.782 201.148 106.745L187.515 120.572V131.883H228.897V120.282H202.405Z" fill="black"/>
</svg>

<svg xmlns="http://www.w3.org/2000/svg" fill="none" viewBox="0 0 256 256"><path fill="#FFB852" d="M256 128c0 70.692-57.307 128-128 128C57.308 256 0 198.692 0 128S57.308 0 128 0s128 57.307 128 128"/><path fill="#FFE3BD" d="M82.473 165.05c.016.851.03 1.35-1.147 1.363l-15.244.152.17 13.826 26.57-.288.25 20.092 13.21-.157-.25-20.091 8.212-.087.242 20.064 12.566-.135-.221-20.099 9.45-.087c6.293-.085 28.762-5.678 28.463-26.525a25.004 25.004 0 0 0-18.55-24.945s12.7-7.845 11.319-20.999c-1.382-13.154-11.733-16.728-17.689-18.62a62.8 62.8 0 0 0-14.178-2.186l-.253-21.006-12.073.214.279 20.88-9.707.124-.19-20.992-12.211.25.245 20.978-25.597.304.113 12.365 14.034-.165c1.412-.017 1.42.69 1.426 1.16zM104 98.996l14.92-.162c2.562-.023 15.034 1.962 15.092 12.542a12.135 12.135 0 0 1-9.9 12.334 17 17 0 0 1-3.491.531l-16.451.18zm.639 38.582 23.318-.209a12.415 12.415 0 0 1 11.602 8.221c.571 1.588.811 3.277.708 4.962.109 8.412-7.195 12.185-11.034 13.191a6.8 6.8 0 0 1-1.728.276l-22.501.29z"/><path fill="#000" fill-rule="evenodd" d="m77.093 161.122-16.41.164.302 24.496 26.571-.287.249 20.096 23.876-.283-.001-.02 20.764-.224-.222-20.089 4.108-.039h.024c4.075-.055 12.235-1.733 19.476-6.299 7.463-4.706 14.386-12.825 14.248-25.514a30.35 30.35 0 0 0-14.159-26.5q.276-.313.551-.643c3.532-4.242 7.242-10.882 6.347-19.403-.851-8.107-4.577-13.559-9.123-17.158-4.343-3.437-9.268-5.038-12.255-5.987l-.102-.032-.103-.029a68 68 0 0 0-10.313-1.987l-.259-21.488-21.674.383-.002-.173-22.89.468.244 20.932-25.582.304.21 23.032 15.46-.183zm14.642-74.346-25.596.304.113 12.365 14.034-.165c1.412-.017 1.42.69 1.426 1.16l.761 64.61v.006c.017.848.026 1.343-1.147 1.357l-15.244.152.17 13.826 26.57-.288.25 20.092 13.21-.157-.25-20.091 8.212-.087.242 20.064 12.566-.135-.221-20.099 9.45-.087c6.293-.085 28.762-5.678 28.463-26.525a25.004 25.004 0 0 0-18.55-24.945s2.274-1.404 4.792-4.021c3.434-3.567 7.325-9.389 6.527-16.978-1.382-13.154-11.733-16.728-17.689-18.62a62.8 62.8 0 0 0-14.178-2.186l-.253-21.006-12.073.214.279 20.88-9.707.124-.19-20.992-12.211.25zm42.276 24.6c-.058-10.58-12.53-12.565-15.092-12.543l-14.92.163.17 25.425 16.451-.18a17 17 0 0 0 3.491-.531 12.135 12.135 0 0 0 9.9-12.334m-13.557 7.533a12 12 0 0 0 2.315-.361l.18-.047.183-.034a6.8 6.8 0 0 0 5.549-6.912l-.003-.075v-.075c-.015-2.679-1.404-4.316-3.76-5.558-1.214-.639-2.553-1.077-3.752-1.35a15 15 0 0 0-1.522-.271 9 9 0 0 0-.678-.059l-9.598.105.099 14.757zm19.812 31.643a12.43 12.43 0 0 0-7.408-12.138 12.4 12.4 0 0 0-4.902-1.045l-23.318.209.366 26.729 22.5-.288a6.8 6.8 0 0 0 1.728-.276c3.839-1.006 11.143-4.779 11.034-13.191m-12.892 8.135q.178-.008.349-.059l.079-.023.079-.02c1.28-.336 3.218-1.18 4.726-2.575 1.383-1.279 2.357-2.945 2.325-5.389l-.002-.199.012-.198a7.08 7.08 0 0 0-1.893-5.272 7.1 7.1 0 0 0-5.093-2.249l-17.912.161.219 16.044z" clip-rule="evenodd"/><path fill="#000" d="M119.981 22.856a105.45 105.45 0 0 1 59.755 13.258l-3.118 5.225a99.37 99.37 0 0 0-144.484 60.517 99.367 99.367 0 0 0 188.737 61.482l5.743 2.01a105.446 105.446 0 0 1-158.902 49.168 105.45 105.45 0 0 1 52.269-191.66"/><path fill="#FFDFB6" d="M228.897 131.883h-41.382v-11.311l13.633-13.827q7.251-7.445 10.055-11.409 2.901-3.963 2.901-8.411 0-4.545-2.417-6.382-2.32-1.836-6.671-1.836-6.479 0-14.117 1.16l-2.32.29-.677-10.346q9.475-2.9 19.627-2.9 20.305 0 20.304 18.274 0 7.155-3.094 12.375-3.094 5.221-11.215 12.666l-11.119 10.056h26.492z"/><path fill="#000" fill-rule="evenodd" d="M234.23 137.217h-52.048v-18.832l15.145-15.36.012-.012c4.8-4.93 7.899-8.478 9.51-10.756l.024-.035.026-.035c1.338-1.83 1.871-3.547 1.871-5.262 0-1.07-.146-1.681-.258-1.978a1 1 0 0 0-.084-.18l-.01-.009-.042-.033c-.252-.199-1.117-.685-3.361-.685-4.006 0-8.439.36-13.316 1.1l-.068.01-8.005 1-1.322-20.203 4.037-1.235c6.835-2.093 13.904-3.135 21.188-3.135 7.459 0 14.05 1.667 18.796 5.938 4.853 4.367 6.841 10.602 6.841 17.67 0 5.554-1.207 10.654-3.839 15.095-2.463 4.157-6.659 8.799-12.2 13.878l-.026.024-.847.766h17.976zm-31.825-16.935 11.119-10.056q8.121-7.445 11.215-12.666 3.094-5.22 3.094-12.375 0-18.274-20.304-18.274-10.152 0-19.627 2.9l.677 10.345 2.32-.29q1.512-.229 2.978-.413 5.942-.746 11.139-.746 4.35 0 6.671 1.837 2.417 1.836 2.417 6.38 0 4.449-2.901 8.412-2.804 3.965-10.055 11.409l-13.633 13.827v11.311h41.382v-11.601z" clip-rule="evenodd"/></svg>
